X:97
T:CRABWD- The Yielding Lass (Crab of the Wood)
S:Pills, VI, p. 222, 1720, with 3rd measure as given.
Q:1/4=120
L:1/4
M:6/4
K:G
G|G2ABGA|B2cdBe|(d/B/)dG2A|(B3B2)||d|\
dBeece|(fdf)gea|(fg)adgf|(g3g2)|]

